X:1
T:Marching Along
T:Marching Along
T:William Batchelder Bradbury
T:R. P. Clark, 1860, alt.
T:Public Domain Courtesy of the Cyber Hymnal™
T:Public Domain Courtesy of the Cyber Hymnal™
C:William Batchelder Bradbury
Z:Public Domain
Z:Courtesy of the Cyber Hymnal™
%%score ( 1 2 ) 3
L:1/8
Q:1/4=90
M:4/4
K:C
V:1 treble 
V:2 treble 
V:3 bass 
V:1
 [EG] | [EG]2 [EG]>[FA] [EG]2 [CE][DF] | [EG]2 [EG]>[FA] [EG]3 [EG] | %3
w: 1.~The|child- ren are gath- ering from|near and from far; The|
w: 2.~The|foe is be- fore us in|bat- tle ar- ray, But|
w: 3.~En-|list- ed for life, we will|camp on the field, With|
w: 4.~Through|con- flicts and tri- als our|crowns we must win, For|
 [FA]2 [FA]>[GB] [Ac]2 [GB]>[FA] | [EG]2 [EG]>[CE] [B,D]3 [EG] | [EG]2 [EG]>[FA] [EG][EG][CE][EG] | %6
w: trum- pet is sound- ing the|call for the war; The|con- flict is rag- ing, ’twill be|
w: let us not wa- ver nor|turn from the way; The|Lord is our stre- ngth, be this|
w: Christ as our cap- tain, we|ne- ver will yield; The|“sword of the Sp- ir- it,” both|
w: here we con- tend ’gainst temp-|ta- tion and sin; But|one thing as- su- res us, we|
 [FA]2 [FA]>[GB] [Ac]3 [FA] | G2 [Gc]>[GB] ([FA][FA])[Fd][EAc] | [DGB]2 [CFA]>[DFB] [Ec]4 || %9
w: fear- ful and long; We’ll|gird on our armor, * and be|march- ing a- long.|
w: ev- er our song; With|cour- age and faith * we are|march- ing a- long.|
w: trus- ty and strong, We’ll|hold in our hands * as we’re|march- ing a- long.|
w: can not go wrong, If|trust- ing our Sav- * ior, while|march- ing a- long.|
"^Refrain" [ce]2 [ce]>[ce] [ce]2 [Bd][Ac] | [Ac]2 [GB]>[FA] [EG]4 | %11
w: ||
w: ||
w: March- ing a- long, we are|march- ing a- long,|
w: ||
 [EG]2 [Ec]>[Fd] [Ec][Ec][DGB][EAc] | [GBd]2 [GBd]>[Gce] [GBd]3 [GBd] | %13
w: ||
w: ||
w: Gird on the ar- mor, and be|march- ing a- long, The|
w: ||
 [Gce]2 [Gce][Gce] [Gce][Gce][Bd][Ac] | [FA]2 [FA][FA] [Ac]3 [FA] | G2 [Gc]>[GB] [FA][FA][Fd][Ec] | %16
w: |||
w: |||
w: con- flict is rag- ing, ’twill be|fear- ful and long, Then|gird on the ar- mor and be|
w: |||
 [DB]2 [CA]>[DB] [Ec]4 |] %17
w: |
w: |
w: march- ing a- long.|
w: |
V:2
 x | x8 | x8 | x8 | x8 | x8 | x8 | G2 x6 | x8 || x8 | x8 | x8 | x8 | x8 | x8 | G2 x6 | x8 |] %17
V:3
 C, | C,2 C,>C, C,2 C,C, | C,2 C,>C, C,3 C, | F,2 F,>F, F,2 F,>F, | C,2 C,>E, F,3 C, | %5
 C,2 C,>C, C,C,C,C, | F,2 F,>F, F,3 F, | E,2 E,>E, (F,F,)F,F, | G,2 G,>G, C,4 || %9
 C,2 E,>G, C2 G,A, | F,2 F,>F, C,4 | C,2 C,>C, C,C,D,C, | G,2 G,>G, G,3 G, | C,2 C,C, C,C,D,E, | %14
 F,2 F,F, F,3 F, | E,2 E,>E, F,F,F,F, | G,2 G,>G, C,4 |] %17

